X: 5
T: Galway Races
M: 6/8
L: 1/8
Q: 125
R: jig
P: AA BB
K: D
|: "D"ABA D2 d| dcA BAF| ABF ABc| "G"dAB "A"cde| "D"ABA D2 d| dcA AGE
| "G"GAB cde|1 "D"fdc d2 B:|2 "D"fdd d2 e|: "D"fff edc|
Add Ade| f2-f edc| ABc def| "G"ggg age| dcA AGE|"A"GAB cde|1"D"fdd d2 e:|2"D"fdd d3||
